X:13
T:Mercy Jack. Ru2.013
%%VWML:RutherfordVol2-2249-p7-0
F:http://www.vwml.org/record/RutherfordVol2/2249/p7
B:RUTHERFORD Complete Collection of 200 Country Dances Vol.2; 1759.
Z:vmp.Mike Hicken 2015 www.village-music-project.org.uk
M:6/8
Q:3/8=110
K:G
GAG GAG|Gge dBG|ABA ABA|ABG FED|
GAG GAG|Ggf gfe|fed Ad^c|d3-d3 :|
|:def gfe|=f3e3|edc BAG|FGA D3|
def gfe|fed efg|fed Ad^c|d3d3|
GAG GAG|Gge dBG|ABA ABA|ABG FED|
GAG GAG|Ggf gdc|BAG DGF|G3 !fermata!G,3 |]
W:
W: Cast down two Cu: and turn .|  cast up to the top
W: and turn :|  Gallop down the middle up again and
W: cast off .|.  hands round 4 at top :|.
T:Rose. Ru2.014, The
L:1/8
B:RUTHERFORD Complete Collection of 200 Country Dances Vol.2; 1759.
Z:vmp.Mike Hicken 2015 www.village-music-project.org.uk
M:6/8
Q:3/8=110
K:Eb
EGB edc|BcA GFE|DFB EGB|cde BGE|
BGE efg|fdB ecA|dcB FB=A|B3 B,3 :|
|: geg bge|def Bcd|edc BAG|FED EGB,|
G,B,E FGA|GFE cBA|GFE B,ED|[E3G,3][E3G,3]:|
W:
W: Foot it 4 and turn your own partners and
W: stand on the contrary sides .|  the same
W: back again to your own sides :|  cast off
W: and hands round with the 3d Cu: .|.  right and
W: left at top :|.
